X:27
T:Alice's Dollie
C: J. Scott Skinner
R: strathspey
M:C
L:1/8
Z: Jason R. Fruit <jason@starlight-glimmer>
K:A
c | e>fe>d c<dA>c | d>ef>e d<f zg | a>g {g}fa e<a c>A | B>AG>F E<A z :|
G | A>ec>e A>ec>A | B>fd>f B>fd>B | A>ec>e A>ac>A | B>AG>F E<A zG |
x7 a &A/A/e c>e A>e "^or"c>A  | x7 b & B/B/f d>f B>fd>B | (3cde (3def (3exa(3fxx & x4 (3eca (3ecA | e>cd>B c<A z & B>cG>F E<A|]

